src/icons/icons_set_03/034-fleche-suivant.svg

<svg height="50" viewBox="0 0 50 50" width="50" xmlns="http://www.w3.org/2000/svg"><path d="m17.5 35.9242546 10.0053483-11.25317c.7339397-.8254734 1.9980938-.8996761 2.8235671-.1657363.8254734.7339397.8996761 1.9980938.1657363 2.8235671l-13.3367063 15c-.7891665.8875878-2.1734238.8959137-2.9732099.0178829l-13.66329369-15c-.74381616-.8165851-.68482526-2.0815403.13175988-2.8253565s2.08154033-.6848252 2.8253565.1317599l10.02144181 11.0018588v-33.6550605c0-1.1045695.8954305-2 2-2s2 .8954305 2 2z" transform="matrix(0 -1 1 0 4 41)"/></svg>

<?xml version="1.0" encoding="UTF-8"?>
<svg width="50px" height="50px" viewBox="0 0 50 50" version="1.1" xmlns="http://www.w3.org/2000/svg" xmlns:xlink="http://www.w3.org/1999/xlink">
    <!-- Generator: Sketch 52.4 (67378) - http://www.bohemiancoding.com/sketch -->
    <title>034-fleche-suivant</title>
    <desc>Created with Sketch.</desc>
    <g id="034-fleche-suivant" stroke="none" stroke-width="1" fill="none" fill-rule="evenodd">
        <g id="Group-2" transform="translate(25.500000, 25.500000) rotate(-90.000000) translate(-25.500000, -25.500000) translate(10.000000, 4.000000)" fill="#000000" fill-rule="nonzero">
            <path d="M17.5,35.9242546 L27.5053483,24.6710846 C28.239288,23.8456112 29.5034421,23.7714085 30.3289154,24.5053483 C31.1543888,25.239288 31.2285915,26.5034421 30.4946517,27.3289154 L17.1579454,42.3289154 C16.3687789,43.2165032 14.9845216,43.2248291 14.1847355,42.3467983 L0.521441814,27.3467983 C-0.222374354,26.5302132 -0.163383449,25.265258 0.653201689,24.5214418 C1.46978683,23.7776256 2.73474202,23.8366166 3.47855819,24.6532017 L13.5,35.6550605 L13.5,2 C13.5,0.8954305 14.3954305,2.84217094e-14 15.5,2.84217094e-14 C16.6045695,2.84217094e-14 17.5,0.8954305 17.5,2 L17.5,35.9242546 Z" id="Combined-Shape"></path>
        </g>
    </g>
</svg>
